X: 06026
T: FRONT HALL REEL
C: Bob McQuillen 5 Feb 82
B: Bob's Note Book 6 #26
%R: reel
Z: 2021 John Chambers <jc:trillian.mit.edu>
M: C
L: 1/8
K: D
fe \
| d2dB Adfe | d2dB ABAG | FAdf afeg | fafd e2fe |\
| dedB ABAG | FDFA Bdgf | efed cdeg | f2d2 d2 :|
|: fg \
| afdf dAdf | edcB A2dc | BGBd gfed | efec AGFE |\
| FDFA GBAG | FDFA BdcB | Adfa gecd | e2dc d2 :|
%%begintext align
%% Here's a little
%% tune for Andy Spence who is always nice to
%% me - Best wishes always, Andy, to you and
%% Bill -
%%endtext

%%sep 1 1 500

%%sep 1 1 500

